svg/regular/bx-image-add.svg

<svg xmlns="http://www.w3.org/2000/svg" width="24" height="24"><path d="M4 5h13v7h2V5c0-1.103-.897-2-2-2H4c-1.103 0-2 .897-2 2v12c0 1.103.897 2 2 2h8v-2H4V5z"/><path d="m8 11-3 4h11l-4-6-3 4z"/><path d="M19 14h-2v3h-3v2h3v3h2v-3h3v-2h-3z"/></svg>

<svg xmlns="http://www.w3.org/2000/svg" width="24" height="24" viewBox="0 0 24 24"><path d="M4,5h13v7h2V5c0-1.103-0.897-2-2-2H4C2.897,3,2,3.897,2,5v12c0,1.103,0.897,2,2,2h8v-2H4V5z"/><path d="M8 11L5 15 16 15 12 9 9 13z"/><path d="M19 14L17 14 17 17 14 17 14 19 17 19 17 22 19 22 19 19 22 19 22 17 19 17z"/></svg>
